!!!COM: Hugo Wolf
!!!CNT: Deutscher
!!!TXO: Deutsche 
!!!OTL: Nimmersatte Liebe
!!!ONM: No. 9
!!!ODT: 1888/
!!!LYR: Moericke
!!!ENC: Brian Bice
!!!YOR: 65 Songs for voice and piano, International Music Company, 1960
!!NB: Vocal melody and text only encoded.
**kern	**silbe
*clefG2	*
*k[b-e-a-d-]	*
*M4/8	*
=4	=4
4r	.
8r	.
{8cc	{So
=5	=5
8b-	ist
16r	.
16f-	die
8f-	Lieb!
8cc	So
=6	=6
8b-	ist
16r	.
16f-	die
8f-	Lieb!
8cc	Mit
=7	=7
8cc	Ku2s-
8cc	-sen
8ee-	nicht
16r	.
16dd-	zu
=8	=8
4a-	stil-
8g}	-len:}
16r	.
{16g	{wer
=9	=9
8g	ist
8bn	der
8ddn	Tor
8ee-	und
=10	=10
8.ddn	will
16cc	ein
8cc	Sieb
8g	mit
=11	=11
8b-	ei-
8a-	-tel
8e-	Was-
8f	-ser
=12	=12
8f#	ful-
8g}	-len?}
8r	.
{8g	{und
=13	=13
8g	scho2pfst
8a-	du
8an	an
8b-	die
=14	=14
8.dd-	tau-
16cc	-send
8cc	Jahr,
8cc	und
=15	=15
8cc	ku2s-
8dd-	-sest
8ddn	e-
8ee-	-wig,
=16	=16
8.gg-	e-
16ff	-wig
8ff}	gar,}
{8ff	{du
=17	=17
8.ff-	tust
16ff-	ihr
8ee-	nie
8ddn	zu
=18	=18
8ffn	Wil-
8ee-	|
8cc}	-len.}
8r	.
=20	=20
4r	.
8r	.
{8b-	{Die
=21	=21
8b-	Lieb,
16r	.
16b-	die
8bn	Lieb
16r	.
16bn	hat
=22	=22
8bn	al-
8een	-le
8bn	Stund
8cc	neu
=23	=23
8.cc	wun-
16dd-	-der-
8cc	-lich
8bn	Ge-
=24	=24
8.cc	-lu2-
16ff	|
8ff}	-sten;}
{8ff	{wir
=25	=25
8.ff	bis-
16gg-	-sen
8.ff	uns
16gg-	die
=26	=26
8.ff	Lip-
16dd-	-pen
8.b-	wund,
16a-	da
=27	=27
8gn	wir
8a-	uns
8b-	heu-
8dd-	-te
=28	=28
8cc	ku2ss-
8ee-	|
8b-}	-ten.}
16r	.
{16b-	{Das
=29	=29
8b-	Ma2d-
8b-	-chen
8b-	hielt
8b-	in
=30	=30
8.an	gu-
16dd-	-ter
8.dd-	Ruh,
16dd-	wie's
=31	=31
8cc	La2mm-
8cc	-lein
8cc	un-
8cc	-term
=32	=32
8.bn	Mes-
16ee-	|
8ee-}	-ser;}
16r	.
{16ee-	{ihr
=33	=33
8.ddn	Au-
16ddn	-ge
8ddn	bat:
8ddn	nur
=34	=34
8.cc#	im-
16ff	-mer
8ff	zu,
16r	.
16ff	je
=35	=35
4aa-	we-
8a-	-her
16g	des-
16a-	-to
=36	=36
8ff-	bes-
8ee-}	-ser!}
4r	.
=37	=37
4r	.
8r;	.
{8cc	{So
=38	=38
8.b-	ist
16f-	die
8f-	Lieb,
8cc	und
=39	=39
8.b-	war
16f-	auch
8f-	so,
8cc	wie
=40	=40
8cc	lang
16bn	es
16cc	|
8ddn	Lie-
8g	-be
=41	=41
4ee-}	gibt,}
8r	.
{8an	{und
=42	=42
8b-	an-
8cc	-ders
8dd-	war
8ff	Herr
=43	=43
8.ddn	Sa-
16ee-	-lo-
8ee-	-mo,
8cc	der
=44	=44
8ee-	wei-
8dd-	-se,
8e-	nicht
8b-	ver-
=45	=45
4.cc;}	-liebt.}
16r	.
{16an	{und
=46	=46
8b-	an-
8cc	-ders
8dd-	was
8gg	Her
=47	=47
8.ff	Sa-
16ee-	-lo-
8ee-	-mo,
8en	der
=48	=48
8f	Wei-
8cc	-se,
8b-	nicht
16r	.
16a-	ver-
=49	=49
4a-}	-liebt.}
4r	.
*-	*-
